X: 30382
M: 2/4
L: 1/16
K: C
|: Bc |\
d4 B4 | G2G2 z2cd | e4 c4 | G2G2 z2Bc |
dcBc d2[g2d2] | d2d2B2B2 | c2c2A2A2 | G4 z2G2 |\
c2ed c2ed | c2e2 z2G2 | d2fe d2fd | d2g2 z2f2 |\
e2{f}g2c2{^d}e2 | A2c2G2c2 | e4 d4 | c6 :|


